X:2337
L:1/8
M:3/4
K:C
"C" c4 E2 | G4 c2 |"G7" B4 D2 | F4 EF | B4 A2 | G4 F2 |"C" E3 C EA | G2 AG ^FG | c4 E2 | G4 c2 | 
"G7" B4 D2 | F4 EF | B4 A2 | G3 F ED |"C" (C6 | C2) z2 z2 |:[K:G]"D7" D3 F Ac |"G" .B2 !>!G4 | 
"D7" A3 D F2 |"G" GD GB d2 |"D7" D3 F Ac |"G" .B2 !>!G4 |"D7" A3 D F2 |"G" G2 z2 z2 :| 
[K:C]"C" E2 EE EE | E2 D2 E2 |"G7" G4 F2 | D4 B,C | D2 DD DD | D2 ^C2 D2 |"C" E4 D2 | C4 EG | 
 c2 cc cc | c2 B2 c2 |"F" d4 c2 | A6 |"^F#0" AA A2 B2 |"C/G" c4 E2 |"G7" GG G2 B,2 |"C" C2 z2 C2 |: 
[K:F]"F" FF F2 C2 | AA A2 F2 |"C7" GG G2 E2 |"F" FF F2 C2 | FF F2 C2 |"Dm" AA A2 F2 | 
"Gm" GG G2"C7" E2 |1"F" F2 z2 C2 :|2"F" F2 z2 z2 |]

